X:175
T: Gallant Tipperary Boys (c)
S: "Johnny O'Leary of Sliabh Luachra" (#97)
Z: B.Black
L: 1/8
M: 12/8
R: slide
Q: 360
K: D
ABc|d3 DFA B2d ABc|dff ede f2a d3|
gbg gab bge d2B|1 BAB DFA B2A :|2\
BAB DFA B2A A3 ||
aga fdf gfg efg|a2a fdf e2A A3|
agf g2f e/f/g/e d2B|BAB DFA B2A A3 :|
